(Generated with: dxf2gcode_b02, Version: TKINTER Beta 02, Date: 2010-11-20)
(Time: Fri Jul 22 19:07:59 2011)
(Created from file: /home/arnew/vakuumtisch/test1-platte3b.dxf)
G21 (Unit in mm)
G90 (Absolute distance mode)
G64 P0.01 (Exact Path 0.001 tol.)
G17
G40 (Cancel diameter comp.)
G49 (Cancel length comp.)
T1M6 (Tool change to T1)
M8 (Coolant flood on)
S5000M03 (Spindle 5000rpm cw)
G0 Z  15.000 
G0 X 220.665 Y  69.335
G0 Z   3.000 
F150
G1 Z  -1.500
F700
G41
G1 X 220.000 Y  60.494
G2 X 217.273 Y  58.631 I  -2.000 J   0.000
G3 X 217.273 Y  21.369 I  -7.273 J -18.631
G2 X 220.000 Y  19.506 I   0.727 J  -1.863
G1 X 220.000 Y  10.000
G1 X 112.000 Y  10.000
G1 X 112.000 Y  20.000
G1 X 108.000 Y  20.000
G1 X 108.000 Y  10.000
G1 X  14.000 Y  10.000
G1 X  14.000 Y  20.000
G1 X  10.000 Y  20.000
G1 X  10.000 Y  30.000
G1 X  14.000 Y  30.000
G1 X  14.000 Y  40.000
G1 X  10.000 Y  40.000
G1 X  10.000 Y  50.000
G1 X  14.000 Y  50.000
G1 X  14.000 Y  60.000
G1 X  10.000 Y  60.000
G1 X  10.000 Y  70.000
G1 X 220.000 Y  70.000
F150
G1 Z  -3.000
F700
G1 X 220.000 Y  60.494
G2 X 217.273 Y  58.631 I  -2.000 J   0.000
G3 X 217.273 Y  21.369 I  -7.273 J -18.631
G2 X 220.000 Y  19.506 I   0.727 J  -1.863
G1 X 220.000 Y  10.000
G1 X 112.000 Y  10.000
G1 X 112.000 Y  20.000
G1 X 108.000 Y  20.000
G1 X 108.000 Y  10.000
G1 X  14.000 Y  10.000
G1 X  14.000 Y  20.000
G1 X  10.000 Y  20.000
G1 X  10.000 Y  30.000
G1 X  14.000 Y  30.000
G1 X  14.000 Y  40.000
G1 X  10.000 Y  40.000
G1 X  10.000 Y  50.000
G1 X  14.000 Y  50.000
G1 X  14.000 Y  60.000
G1 X  10.000 Y  60.000
G1 X  10.000 Y  70.000
G1 X 220.000 Y  70.000
F150
G1 Z  -4.500
F700
G1 X 220.000 Y  60.494
G2 X 217.273 Y  58.631 I  -2.000 J   0.000
G3 X 217.273 Y  21.369 I  -7.273 J -18.631
G2 X 220.000 Y  19.506 I   0.727 J  -1.863
G1 X 220.000 Y  10.000
G1 X 112.000 Y  10.000
G1 X 112.000 Y  20.000
G1 X 108.000 Y  20.000
G1 X 108.000 Y  10.000
G1 X  14.000 Y  10.000
G1 X  14.000 Y  20.000
G1 X  10.000 Y  20.000
G1 X  10.000 Y  30.000
G1 X  14.000 Y  30.000
G1 X  14.000 Y  40.000
G1 X  10.000 Y  40.000
G1 X  10.000 Y  50.000
G1 X  14.000 Y  50.000
G1 X  14.000 Y  60.000
G1 X  10.000 Y  60.000
G1 X  10.000 Y  70.000
G1 X 220.000 Y  70.000
G0 X 220.000 Y  69.335
G1 Z   3.000
G0 Z  15.000 
G40
G0 X 259.335 Y 106.665
G0 Z   3.000 
F150
G1 Z  -1.500
F700
G41
G1 X 260.000 Y 280.000
G1 X 269.506 Y 280.000
G2 X 271.369 Y 277.273 I   0.000 J  -2.000
G3 X 308.631 Y 277.273 I  18.631 J  -7.273
G2 X 310.494 Y 280.000 I   1.863 J   0.727
G1 X 320.000 Y 280.000
G1 X 320.000 Y 195.000
G1 X 310.000 Y 195.000
G1 X 310.000 Y 191.000
G1 X 320.000 Y 191.000
G1 X 320.000 Y 106.000
G1 X 310.494 Y 106.000
G3 X 308.631 Y 103.273 I   0.000 J  -2.000
G2 X 271.369 Y 103.273 I -18.631 J  -7.273
G3 X 269.506 Y 106.000 I  -1.863 J   0.727
G1 X 260.000 Y 106.000
F150
G1 Z  -3.000
F700
G1 X 260.000 Y 280.000
G1 X 269.506 Y 280.000
G2 X 271.369 Y 277.273 I   0.000 J  -2.000
G3 X 308.631 Y 277.273 I  18.631 J  -7.273
G2 X 310.494 Y 280.000 I   1.863 J   0.727
G1 X 320.000 Y 280.000
G1 X 320.000 Y 195.000
G1 X 310.000 Y 195.000
G1 X 310.000 Y 191.000
G1 X 320.000 Y 191.000
G1 X 320.000 Y 106.000
G1 X 310.494 Y 106.000
G3 X 308.631 Y 103.273 I   0.000 J  -2.000
G2 X 271.369 Y 103.273 I -18.631 J  -7.273
G3 X 269.506 Y 106.000 I  -1.863 J   0.727
G1 X 260.000 Y 106.000
F150
G1 Z  -4.500
F700
G1 X 260.000 Y 280.000
G1 X 269.506 Y 280.000
G2 X 271.369 Y 277.273 I   0.000 J  -2.000
G3 X 308.631 Y 277.273 I  18.631 J  -7.273
G2 X 310.494 Y 280.000 I   1.863 J   0.727
G1 X 320.000 Y 280.000
G1 X 320.000 Y 195.000
G1 X 310.000 Y 195.000
G1 X 310.000 Y 191.000
G1 X 320.000 Y 191.000
G1 X 320.000 Y 106.000
G1 X 310.494 Y 106.000
G3 X 308.631 Y 103.273 I   0.000 J  -2.000
G2 X 271.369 Y 103.273 I -18.631 J  -7.273
G3 X 269.506 Y 106.000 I  -1.863 J   0.727
G1 X 260.000 Y 106.000
G0 X 260.000 Y 106.665
G1 Z   3.000
G0 Z  15.000 
G40
G0 X 220.665 Y 139.335
G0 Z   3.000 
F150
G1 Z  -1.500
F700
G41
G1 X 220.000 Y 130.494
G2 X 217.273 Y 128.631 I  -2.000 J   0.000
G3 X 217.273 Y  91.369 I  -7.273 J -18.631
G2 X 220.000 Y  89.506 I   0.727 J  -1.863
G1 X 220.000 Y  80.000
G1 X 112.000 Y  80.000
G1 X 112.000 Y  90.000
G1 X 108.000 Y  90.000
G1 X 108.000 Y  80.000
G1 X  14.000 Y  80.000
G1 X  14.000 Y  90.000
G1 X  10.000 Y  90.000
G1 X  10.000 Y 100.000
G1 X  14.000 Y 100.000
G1 X  14.000 Y 110.000
G1 X  10.000 Y 110.000
G1 X  10.000 Y 120.000
G1 X  14.000 Y 120.000
G1 X  14.000 Y 130.000
G1 X  10.000 Y 130.000
G1 X  10.000 Y 140.000
G1 X 220.000 Y 140.000
F150
G1 Z  -3.000
F700
G1 X 220.000 Y 130.494
G2 X 217.273 Y 128.631 I  -2.000 J   0.000
G3 X 217.273 Y  91.369 I  -7.273 J -18.631
G2 X 220.000 Y  89.506 I   0.727 J  -1.863
G1 X 220.000 Y  80.000
G1 X 112.000 Y  80.000
G1 X 112.000 Y  90.000
G1 X 108.000 Y  90.000
G1 X 108.000 Y  80.000
G1 X  14.000 Y  80.000
G1 X  14.000 Y  90.000
G1 X  10.000 Y  90.000
G1 X  10.000 Y 100.000
G1 X  14.000 Y 100.000
G1 X  14.000 Y 110.000
G1 X  10.000 Y 110.000
G1 X  10.000 Y 120.000
G1 X  14.000 Y 120.000
G1 X  14.000 Y 130.000
G1 X  10.000 Y 130.000
G1 X  10.000 Y 140.000
G1 X 220.000 Y 140.000
F150
G1 Z  -4.500
F700
G1 X 220.000 Y 130.494
G2 X 217.273 Y 128.631 I  -2.000 J   0.000
G3 X 217.273 Y  91.369 I  -7.273 J -18.631
G2 X 220.000 Y  89.506 I   0.727 J  -1.863
G1 X 220.000 Y  80.000
G1 X 112.000 Y  80.000
G1 X 112.000 Y  90.000
G1 X 108.000 Y  90.000
G1 X 108.000 Y  80.000
G1 X  14.000 Y  80.000
G1 X  14.000 Y  90.000
G1 X  10.000 Y  90.000
G1 X  10.000 Y 100.000
G1 X  14.000 Y 100.000
G1 X  14.000 Y 110.000
G1 X  10.000 Y 110.000
G1 X  10.000 Y 120.000
G1 X  14.000 Y 120.000
G1 X  14.000 Y 130.000
G1 X  10.000 Y 130.000
G1 X  10.000 Y 140.000
G1 X 220.000 Y 140.000
G0 X 220.000 Y 139.335
G1 Z   3.000
G0 Z  15.000 
G40
G0 X  39.335 Y 220.665
G0 Z   3.000 
F150
G1 Z  -1.500
F700
G41
G1 X  40.000 Y 229.506
G3 X  37.273 Y 231.369 I  -2.000 J   0.000
G2 X  37.273 Y 268.631 I  -7.273 J  18.631
G3 X  40.000 Y 270.494 I   0.727 J   1.863
G1 X  40.000 Y 280.000
G1 X 148.000 Y 280.000
G1 X 148.000 Y 270.000
G1 X 152.000 Y 270.000
G1 X 152.000 Y 280.000
G1 X 246.000 Y 280.000
G1 X 246.000 Y 270.000
G1 X 250.000 Y 270.000
G1 X 250.000 Y 260.000
G1 X 246.000 Y 260.000
G1 X 246.000 Y 250.000
G1 X 250.000 Y 250.000
G1 X 250.000 Y 240.000
G1 X 246.000 Y 240.000
G1 X 246.000 Y 230.000
G1 X 250.000 Y 230.000
G1 X 250.000 Y 220.000
G1 X  40.000 Y 220.000
F150
G1 Z  -3.000
F700
G1 X  40.000 Y 229.506
G3 X  37.273 Y 231.369 I  -2.000 J   0.000
G2 X  37.273 Y 268.631 I  -7.273 J  18.631
G3 X  40.000 Y 270.494 I   0.727 J   1.863
G1 X  40.000 Y 280.000
G1 X 148.000 Y 280.000
G1 X 148.000 Y 270.000
G1 X 152.000 Y 270.000
G1 X 152.000 Y 280.000
G1 X 246.000 Y 280.000
G1 X 246.000 Y 270.000
G1 X 250.000 Y 270.000
G1 X 250.000 Y 260.000
G1 X 246.000 Y 260.000
G1 X 246.000 Y 250.000
G1 X 250.000 Y 250.000
G1 X 250.000 Y 240.000
G1 X 246.000 Y 240.000
G1 X 246.000 Y 230.000
G1 X 250.000 Y 230.000
G1 X 250.000 Y 220.000
G1 X  40.000 Y 220.000
F150
G1 Z  -4.500
F700
G1 X  40.000 Y 229.506
G3 X  37.273 Y 231.369 I  -2.000 J   0.000
G2 X  37.273 Y 268.631 I  -7.273 J  18.631
G3 X  40.000 Y 270.494 I   0.727 J   1.863
G1 X  40.000 Y 280.000
G1 X 148.000 Y 280.000
G1 X 148.000 Y 270.000
G1 X 152.000 Y 270.000
G1 X 152.000 Y 280.000
G1 X 246.000 Y 280.000
G1 X 246.000 Y 270.000
G1 X 250.000 Y 270.000
G1 X 250.000 Y 260.000
G1 X 246.000 Y 260.000
G1 X 246.000 Y 250.000
G1 X 250.000 Y 250.000
G1 X 250.000 Y 240.000
G1 X 246.000 Y 240.000
G1 X 246.000 Y 230.000
G1 X 250.000 Y 230.000
G1 X 250.000 Y 220.000
G1 X  40.000 Y 220.000
G0 X  40.000 Y 220.665
G1 Z   3.000
G0 Z  15.000 
G40
G0 X  39.335 Y 150.665
G0 Z   3.000 
F150
G1 Z  -1.500
F700
G41
G1 X  40.000 Y 159.506
G3 X  37.273 Y 161.369 I  -2.000 J   0.000
G2 X  37.273 Y 198.631 I  -7.273 J  18.631
G3 X  40.000 Y 200.494 I   0.727 J   1.863
G1 X  40.000 Y 210.000
G1 X 148.000 Y 210.000
G1 X 148.000 Y 200.000
G1 X 152.000 Y 200.000
G1 X 152.000 Y 210.000
G1 X 246.000 Y 210.000
G1 X 246.000 Y 200.000
G1 X 250.000 Y 200.000
G1 X 250.000 Y 190.000
G1 X 246.000 Y 190.000
G1 X 246.000 Y 180.000
G1 X 250.000 Y 180.000
G1 X 250.000 Y 170.000
G1 X 246.000 Y 170.000
G1 X 246.000 Y 160.000
G1 X 250.000 Y 160.000
G1 X 250.000 Y 150.000
G1 X  40.000 Y 150.000
F150
G1 Z  -3.000
F700
G1 X  40.000 Y 159.506
G3 X  37.273 Y 161.369 I  -2.000 J   0.000
G2 X  37.273 Y 198.631 I  -7.273 J  18.631
G3 X  40.000 Y 200.494 I   0.727 J   1.863
G1 X  40.000 Y 210.000
G1 X 148.000 Y 210.000
G1 X 148.000 Y 200.000
G1 X 152.000 Y 200.000
G1 X 152.000 Y 210.000
G1 X 246.000 Y 210.000
G1 X 246.000 Y 200.000
G1 X 250.000 Y 200.000
G1 X 250.000 Y 190.000
G1 X 246.000 Y 190.000
G1 X 246.000 Y 180.000
G1 X 250.000 Y 180.000
G1 X 250.000 Y 170.000
G1 X 246.000 Y 170.000
G1 X 246.000 Y 160.000
G1 X 250.000 Y 160.000
G1 X 250.000 Y 150.000
G1 X  40.000 Y 150.000
F150
G1 Z  -4.500
F700
G1 X  40.000 Y 159.506
G3 X  37.273 Y 161.369 I  -2.000 J   0.000
G2 X  37.273 Y 198.631 I  -7.273 J  18.631
G3 X  40.000 Y 200.494 I   0.727 J   1.863
G1 X  40.000 Y 210.000
G1 X 148.000 Y 210.000
G1 X 148.000 Y 200.000
G1 X 152.000 Y 200.000
G1 X 152.000 Y 210.000
G1 X 246.000 Y 210.000
G1 X 246.000 Y 200.000
G1 X 250.000 Y 200.000
G1 X 250.000 Y 190.000
G1 X 246.000 Y 190.000
G1 X 246.000 Y 180.000
G1 X 250.000 Y 180.000
G1 X 250.000 Y 170.000
G1 X 246.000 Y 170.000
G1 X 246.000 Y 160.000
G1 X 250.000 Y 160.000
G1 X 250.000 Y 150.000
G1 X  40.000 Y 150.000
G0 X  40.000 Y 150.665
G1 Z   3.000
G0 Z  15.000 
G40
G0 X   0.000 Y   0.000
M9 (Coolant off)
M5 (Spindle off)
M2 (Prgram end)