(Generated with: dxf2gcode_b02, Version: TKINTER Beta 02, Date: 2010-11-20)
(Time: Fri Jul 22 19:07:38 2011)
(Created from file: /home/arnew/vakuumtisch/test1-platte3a.dxf)
G21 (Unit in mm)
G90 (Absolute distance mode)
G64 P0.01 (Exact Path 0.001 tol.)
G17
G40 (Cancel diameter comp.)
G49 (Cancel length comp.)
T1M6 (Tool change to T1)
M8 (Coolant flood on)
S5000M03 (Spindle 5000rpm cw)
G0 Z  15.000 
G0 X 111.335 Y 109.335
G0 Z   3.000 
F150
G1 Z  -1.500
F700
G41
G1 X 108.000 Y 110.000
G1 X 108.000 Y 100.000
G1 X 112.000 Y 100.000
G1 X 112.000 Y 110.000
F150
G1 Z  -3.000
F700
G1 X 108.000 Y 110.000
G1 X 108.000 Y 100.000
G1 X 112.000 Y 100.000
G1 X 112.000 Y 110.000
F150
G1 Z  -4.500
F700
G1 X 108.000 Y 110.000
G1 X 108.000 Y 100.000
G1 X 112.000 Y 100.000
G1 X 112.000 Y 110.000
G0 X 111.335 Y 110.000
G1 Z   3.000
G0 Z  15.000 
G40
G0 X 111.335 Y 129.335
G0 Z   3.000 
F150
G1 Z  -1.500
F700
G41
G1 X 108.000 Y 130.000
G1 X 108.000 Y 120.000
G1 X 112.000 Y 120.000
G1 X 112.000 Y 130.000
F150
G1 Z  -3.000
F700
G1 X 108.000 Y 130.000
G1 X 108.000 Y 120.000
G1 X 112.000 Y 120.000
G1 X 112.000 Y 130.000
F150
G1 Z  -4.500
F700
G1 X 108.000 Y 130.000
G1 X 108.000 Y 120.000
G1 X 112.000 Y 120.000
G1 X 112.000 Y 130.000
G0 X 111.335 Y 130.000
G1 Z   3.000
G0 Z  15.000 
G40
G0 X 148.665 Y 160.665
G0 Z   3.000 
F150
G1 Z  -1.500
F700
G41
G1 X 152.000 Y 160.000
G1 X 152.000 Y 170.000
G1 X 148.000 Y 170.000
G1 X 148.000 Y 160.000
F150
G1 Z  -3.000
F700
G1 X 152.000 Y 160.000
G1 X 152.000 Y 170.000
G1 X 148.000 Y 170.000
G1 X 148.000 Y 160.000
F150
G1 Z  -4.500
F700
G1 X 152.000 Y 160.000
G1 X 152.000 Y 170.000
G1 X 148.000 Y 170.000
G1 X 148.000 Y 160.000
G0 X 148.665 Y 160.000
G1 Z   3.000
G0 Z  15.000 
G40
G0 X 148.665 Y 180.665
G0 Z   3.000 
F150
G1 Z  -1.500
F700
G41
G1 X 152.000 Y 180.000
G1 X 152.000 Y 190.000
G1 X 148.000 Y 190.000
G1 X 148.000 Y 180.000
F150
G1 Z  -3.000
F700
G1 X 152.000 Y 180.000
G1 X 152.000 Y 190.000
G1 X 148.000 Y 190.000
G1 X 148.000 Y 180.000
F150
G1 Z  -4.500
F700
G1 X 152.000 Y 180.000
G1 X 152.000 Y 190.000
G1 X 148.000 Y 190.000
G1 X 148.000 Y 180.000
G0 X 148.665 Y 180.000
G1 Z   3.000
G0 Z  15.000 
G40
G0 X 148.665 Y 230.665
G0 Z   3.000 
F150
G1 Z  -1.500
F700
G41
G1 X 152.000 Y 230.000
G1 X 152.000 Y 240.000
G1 X 148.000 Y 240.000
G1 X 148.000 Y 230.000
F150
G1 Z  -3.000
F700
G1 X 152.000 Y 230.000
G1 X 152.000 Y 240.000
G1 X 148.000 Y 240.000
G1 X 148.000 Y 230.000
F150
G1 Z  -4.500
F700
G1 X 152.000 Y 230.000
G1 X 152.000 Y 240.000
G1 X 148.000 Y 240.000
G1 X 148.000 Y 230.000
G0 X 148.665 Y 230.000
G1 Z   3.000
G0 Z  15.000 
G40
G0 X 148.665 Y 250.665
G0 Z   3.000 
F150
G1 Z  -1.500
F700
G41
G1 X 152.000 Y 250.000
G1 X 152.000 Y 260.000
G1 X 148.000 Y 260.000
G1 X 148.000 Y 250.000
F150
G1 Z  -3.000
F700
G1 X 152.000 Y 250.000
G1 X 152.000 Y 260.000
G1 X 148.000 Y 260.000
G1 X 148.000 Y 250.000
F150
G1 Z  -4.500
F700
G1 X 152.000 Y 250.000
G1 X 152.000 Y 260.000
G1 X 148.000 Y 260.000
G1 X 148.000 Y 250.000
G0 X 148.665 Y 250.000
G1 Z   3.000
G0 Z  15.000 
G40
G0 X 270.665 Y 194.335
G0 Z   3.000 
F150
G1 Z  -1.500
F700
G41
G1 X 270.000 Y 191.000
G1 X 280.000 Y 191.000
G1 X 280.000 Y 195.000
G1 X 270.000 Y 195.000
F150
G1 Z  -3.000
F700
G1 X 270.000 Y 191.000
G1 X 280.000 Y 191.000
G1 X 280.000 Y 195.000
G1 X 270.000 Y 195.000
F150
G1 Z  -4.500
F700
G1 X 270.000 Y 191.000
G1 X 280.000 Y 191.000
G1 X 280.000 Y 195.000
G1 X 270.000 Y 195.000
G0 X 270.000 Y 194.335
G1 Z   3.000
G0 Z  15.000 
G40
G0 X 290.665 Y 194.335
G0 Z   3.000 
F150
G1 Z  -1.500
F700
G41
G1 X 290.000 Y 191.000
G1 X 300.000 Y 191.000
G1 X 300.000 Y 195.000
G1 X 290.000 Y 195.000
F150
G1 Z  -3.000
F700
G1 X 290.000 Y 191.000
G1 X 300.000 Y 191.000
G1 X 300.000 Y 195.000
G1 X 290.000 Y 195.000
F150
G1 Z  -4.500
F700
G1 X 290.000 Y 191.000
G1 X 300.000 Y 191.000
G1 X 300.000 Y 195.000
G1 X 290.000 Y 195.000
G0 X 290.000 Y 194.335
G1 Z   3.000
G0 Z  15.000 
G40
G0 X 111.335 Y  59.335
G0 Z   3.000 
F150
G1 Z  -1.500
F700
G41
G1 X 108.000 Y  60.000
G1 X 108.000 Y  50.000
G1 X 112.000 Y  50.000
G1 X 112.000 Y  60.000
F150
G1 Z  -3.000
F700
G1 X 108.000 Y  60.000
G1 X 108.000 Y  50.000
G1 X 112.000 Y  50.000
G1 X 112.000 Y  60.000
F150
G1 Z  -4.500
F700
G1 X 108.000 Y  60.000
G1 X 108.000 Y  50.000
G1 X 112.000 Y  50.000
G1 X 112.000 Y  60.000
G0 X 111.335 Y  60.000
G1 Z   3.000
G0 Z  15.000 
G40
G0 X 111.335 Y  39.335
G0 Z   3.000 
F150
G1 Z  -1.500
F700
G41
G1 X 108.000 Y  40.000
G1 X 108.000 Y  30.000
G1 X 112.000 Y  30.000
G1 X 112.000 Y  40.000
F150
G1 Z  -3.000
F700
G1 X 108.000 Y  40.000
G1 X 108.000 Y  30.000
G1 X 112.000 Y  30.000
G1 X 112.000 Y  40.000
F150
G1 Z  -4.500
F700
G1 X 108.000 Y  40.000
G1 X 108.000 Y  30.000
G1 X 112.000 Y  30.000
G1 X 112.000 Y  40.000
G0 X 111.335 Y  40.000
G1 Z   3.000
G0 Z  15.000 
G40
G0 X   0.000 Y   0.000
M9 (Coolant off)
M5 (Spindle off)
M2 (Prgram end)